X: 108
T: Artık Demir Almak Günü...
C: Ferit Sıdal
O: Turkey
F: http://compmusic.upf.edu/node/140
N: nisaburek--sarki--aksak--artik_demir--ferit_sidal
N: makam= nisaburek
N: form= sarki
N: usul= aksak = 9/8
M: 9/8
L: 1/16
K: C ^9/8f ^3/4c ^3/4g 
Q: 1/4=168
%%MIDI tuningsystem comma53
A4 e4 e4 e2f2 d2 | c4d4e4d2 e2c2  | B4 c4 d4 c2d2 B2 | \
w:  ARANAĞME  |   |   | 
A2 f2e2 d2c2 d2e6  | 
w:   | 
d4 e4 f4 e2f2 d2 | c4d4e4d2 e2c2  | B4 c4 d4 c2d2 B2 | \
w:   |   |   | 
A2 f2e2 d2c2 B2A6  | 
w:   | 
A4 e4 e4 e2f2 d2 | c4d4e4d2 e2c2  | B4 c4 d4 c2d2 B2 | \
w:  ARANAĞME  |   |   | 
A2 f2e2 d2c2 d2e6  | 
w:   | 
d4 e4 f4 e2f2 d2 | c4d4e4d2 e2c2  | B4 c4 d4 c2d2 B2 | \
w:   |   |   | 
A2 f2e2 d2c2 B2A6  | 
w:   | 
A4 e4 d2f2 e6 | d2 c2B2 d2c4d2 c2B2  | \
w:  Ar tık  de mir_ al  |  mak  *  gü nü  gel miş  | 
A4 e2e2 e4 d2c2 fe | 
w:  *  se  za man  | 
e4d4c4d2 c2B2  | A4 e4 d2f2 e6 | d2 c2B2 d2c4d2 c2B2  | \
w:  dan   SAZ  |  Ar tık  de mir_ al  |  mak  *  gü nü  gel miş  | 
A4 e2e2 e4 d2c2 fe | 
w:  *  se  za man  | 
e6 d2c2 {=g}fe{f}e6  | e4 f2e2 d2fe e6 | \
w:  dan   SAZ  |  Meç hû *  le  gi *  den   | 
=g2 f2e2 d2c2 d2B4cB  | 
w:  bir  *  ge mi  kal *  kar   | 
c4 B2d2 c2B2 A2G2 BA | A6 e2d2 fee6  | \
w:  *  bu  li man  |  dan   SAZ  | 
e4 f2e2 d2fe e6 | 
w:  Meç hû *  le  gi *  den   | 
=g2 f2e2 d2c2 d2B4cB  | c4 B2d2 c2B2 A2G2 BA | \
w:  bir  *  ge mi  kal *  kar   |  *  bu  li man  | 
A6 e2^d2 =fee6  | 
w:  dan   SAZ  | 
A4 e4 e2=fe e6 | =g2 =f2e2 a2g2 f2e4d2  | \
w:  Hiç  yol cu su  *  yok  |  muş  *  gi bi  ses *  siz  | 
=c4 d2=f2 e2d2 c2B2 A2 | 
w:  *  ce  a lır   | 
B6 d2=c3B{c}A6  | A4 e4 e2=fe e6 | =g2 =f2e2 a2g2 f2e4d2  | \
w:  yol   SAZ  |  Hiç  yol cu su  *  yok  |  muş  *  gi bi  ses *  siz  | 
=c4 d2=f2 e2d2 c2B2 A2 | 
w:  *  ce  a lır   | 
B6 A2G2 A2B6  | c3B A4 c2d2 e6 | a4g2 b2a4g2 f2g2  | \
w:  yol   SAZ  |  Sal *  lan maz_ o  kal  |  kış ta  ne  men dil   | 
e4 d2dc c2B2 B2c2 BA | 
w:  *  ne  de  *  bir   | 
A8G2 BAA6  | |


